X: 7845
T:Sonderh\o{}ning
R:Sonderh\o{}ning
Q:1/4=92
M:2/4
L:1/8
C:e. Gr\"uner Nielsen
O:Denmark
A:Fan\o{}
K:Am
e|\
eg ff| e(e/c/) A(A/B/)|c(B/A/) (3^GAB| A3 (A/c/)|\
e>^f gf| eb b>^f| g^f e^d| e3 ^d|
e>^f gf| eb b(e/^f/)| g^f ed| c(c/e/) e(e/g/)|\
=ff ed| e(e/c/) A(A/B/)| c(B/A/) (3(^GA)B| (A2 a) |]
